Sources/FrostedUI/Resources/Icons.xcassets/pin32.imageset/pin-32.svg

<svg width="32" height="32" viewBox="0 0 32 32" fill="none" xmlns="http://www.w3.org/2000/svg" data-fui-icon="true">
  <path
    d="M20.2496 1C22.3207 1 23.9996 2.67893 23.9996 4.75V12.2949C23.9997 12.6506 24.0777 13.0025 24.2272 13.3252L26.7057 18.6729C27.8574 21.158 26.0423 23.9997 23.3033 24H16.7496V30.25C16.7496 30.6642 16.4138 31 15.9996 31C15.5856 30.9998 15.2496 30.6641 15.2496 30.25V24H8.69592C5.95723 23.9994 4.14211 21.1579 5.29358 18.6729L7.77209 13.3252C7.92165 13.0025 7.99959 12.6506 7.99963 12.2949V4.75C7.99963 2.67907 9.67876 1.00023 11.7496 1H20.2496ZM11.7496 2.5C10.5072 2.50023 9.49963 3.5075 9.49963 4.75V12.2949C9.49959 12.8683 9.37449 13.4348 9.13342 13.9551L6.65491 19.3037C5.96413 20.7946 7.05293 22.4994 8.69592 22.5H23.3033C24.9466 22.4997 26.0353 20.7948 25.3444 19.3037L22.8658 13.9551C22.6248 13.4348 22.4997 12.8683 22.4996 12.2949V4.75C22.4996 3.50736 21.4923 2.5 20.2496 2.5H11.7496Z"
    fill="currentColor"
  />
</svg>

<svg xmlns="http://www.w3.org/2000/svg" width="32" height="32" fill="none" data-fui-icon="true" viewBox="0 0 32 32"><path fill="currentColor" d="M20.25 1A3.75 3.75 0 0 1 24 4.75v7.545c0 .356.078.707.227 1.03l2.479 5.348C27.857 21.158 26.042 24 23.303 24H16.75v6.25a.75.75 0 0 1-1.5 0V24H8.696c-2.739 0-4.554-2.842-3.402-5.327l2.478-5.348c.15-.322.228-.674.228-1.03V4.75A3.75 3.75 0 0 1 11.75 1zm-8.5 1.5A2.25 2.25 0 0 0 9.5 4.75v7.545a3.95 3.95 0 0 1-.367 1.66l-2.478 5.349c-.69 1.49.398 3.195 2.04 3.196h14.608c1.644 0 2.732-1.705 2.041-3.196l-2.478-5.349a3.95 3.95 0 0 1-.366-1.66V4.75a2.25 2.25 0 0 0-2.25-2.25z"/></svg>
